!!!COM: Robleh, Abdi
!!!CDT: b. 1945
!!!OTL: National Anthem, Djibouti
!!!ENC: Davis, Matthew J.
!!Vocal (top melody) Line Only
**kern
*clefG2
*k[F#]
*G:
*M4/4
=1-
8d
8g
==!|:
2e
8r
8d
8g
8a
=2
[2g
8g]
8r
8b
8dd
=4
2ee
8r
8dd
8b
8a
=5
[2b
8b]
8r
8g
8g
=6
2b
8r
8g
8a
8g
=7
2d
8r
8d
8e
8d
=8
8g
8d
8g
8b
4.a
8g
=9
!First Ending
[2g
8g]
8r
8d
8g
=10
!Second ending
[2g
8g]
8dd
8ee
8b
=11
4a
8g
8a
4.a
8g
=12
[2g
4g]
4r
==|!
*-
